X:39
T:Tripper's Waltz
M:3/4
L:1/8
C:David Pickens
R:Waltz
K:D
"D"F3 E FE | "Bm"D3EF2 | "G"G4D2 | "A7"C2D2E2 | "D"F3 E FE | "Bm"D3EF2 | "G"G4D2 | "A7"C6 | 
"Bm"F4F2 | "G"G4 GF | "A7"E2D2E2 | "D"F6 | "Bm"F4F2 | "G"G4 GF | "A7"E6 |1 "A7" E6 ||2 "A7"E2D2C2 | "D"D6 || 
"G"B4 Bc | "A7"d2c2B2 | "D"A4 BA | "Bm"F2D4 | "G"B4 Bc | "A7"d2c2B2 | "D"A6 | "D"A6 | 
"G"B4 Bc | "A7"d2c2B2 | "D"A4 BA | "Bm"F2D2F2 | "A7"E6 | "A7"E4D2 | "A7"C6 | "A7"C2D2E2 || 
